tools/download-figma-icons/icons/outlined-large/meravis.svg

<svg width="64" height="64" viewBox="0 0 64 64" fill="none" xmlns="http://www.w3.org/2000/svg">
<path fill-rule="evenodd" clip-rule="evenodd" d="M18.651 61H25.6509V49.0001H18.651V61ZM56.1287 61H28.6509V47.5001C28.6509 46.6721 27.9789 46.0001 27.1509 46.0001H17.151C16.323 46.0001 15.651 46.6721 15.651 47.5001V61H8.62903V21.5933L31.9999 3.40047L54.6287 21.0143V38.2362C54.6287 39.0642 55.3007 39.7362 56.1287 39.7362C56.9567 39.7362 57.6287 39.0642 57.6287 38.2362V23.3493L61.5786 26.4253C61.8526 26.6383 62.1766 26.7413 62.4986 26.7413C62.9446 26.7413 63.3876 26.5423 63.6836 26.1623C64.1916 25.5093 64.0746 24.5663 63.4206 24.0573L32.9208 0.316498C32.3798 -0.105499 31.6199 -0.105499 31.0789 0.316498L0.579092 24.0573C-0.0749027 24.5663 -0.191902 25.5093 0.316094 26.1623C0.82409 26.8163 1.76808 26.9313 2.42108 26.4253L5.62905 23.9283V62.5C5.62905 63.328 6.30105 64 7.12904 64H17.151H22.2879H46.5897H56.1287C56.9567 64 57.6287 63.328 57.6287 62.5C57.6287 61.672 56.9567 61 56.1287 61ZM27.1513 38.0293H17.1514C16.3234 38.0293 15.6514 38.7013 15.6514 39.5293C15.6514 40.3573 16.3234 41.0293 17.1514 41.0293H27.1513C27.9793 41.0293 28.6513 40.3573 28.6513 39.5293C28.6513 38.7013 27.9793 38.0293 27.1513 38.0293ZM17.1514 30.0587H27.1513C27.9793 30.0587 28.6513 30.7307 28.6513 31.5587C28.6513 32.3867 27.9793 33.0586 27.1513 33.0586H17.1514C16.3234 33.0586 15.6514 32.3867 15.6514 31.5587C15.6514 30.7307 16.3234 30.0587 17.1514 30.0587ZM27.1513 22.0587H17.1514C16.3234 22.0587 15.6514 22.7307 15.6514 23.5587C15.6514 24.3867 16.3234 25.0587 17.1514 25.0587H27.1513C27.9793 25.0587 28.6513 24.3867 28.6513 23.5587C28.6513 22.7307 27.9793 22.0587 27.1513 22.0587ZM35.989 22.0587H45.9889C46.8169 22.0587 47.4889 22.7307 47.4889 23.5587C47.4889 24.3867 46.8169 25.0587 45.9889 25.0587H35.989C35.161 25.0587 34.489 24.3867 34.489 23.5587C34.489 22.7307 35.161 22.0587 35.989 22.0587ZM45.9889 30.0587H35.989C35.161 30.0587 34.489 30.7307 34.489 31.5587C34.489 32.3867 35.161 33.0586 35.989 33.0586H45.9889C46.8169 33.0586 47.4889 32.3867 47.4889 31.5587C47.4889 30.7307 46.8169 30.0587 45.9889 30.0587ZM41.74 50.8717L45.5749 54.0107C47.9379 55.9447 51.4359 55.5957 53.3709 53.2327C55.3079 50.8647 54.9629 47.3637 52.5989 45.4278L48.7639 42.2888L47.5529 43.7698C47.5517 43.771 47.5509 43.7726 47.55 43.7743C47.5494 43.7754 47.5487 43.7766 47.5479 43.7778L47.5419 43.7828L42.96 49.3807C42.9594 49.3818 42.9592 49.3825 42.9589 49.3832C42.9587 49.3838 42.9584 49.3842 42.958 49.3847L42.955 49.3877L41.74 50.8717ZM56.5129 53.9177C57.5529 54.6567 59.5108 55.6367 62.3078 55.2757C63.1378 55.1747 63.8828 55.7507 63.9878 56.5727C64.0928 57.3947 63.5118 58.1467 62.6908 58.2507C62.1468 58.3217 61.6248 58.3537 61.1248 58.3537C58.0589 58.3537 55.8499 57.1567 54.5979 56.2287C53.0249 57.5627 51.0599 58.2597 49.0759 58.2597C47.1729 58.2597 45.26 57.6287 43.675 56.3327L38.679 52.2437C38.371 51.9917 38.176 51.6277 38.137 51.2327C38.096 50.8357 38.216 50.4407 38.468 50.1327L39.685 48.6457L35.238 45.0058C34.597 44.4808 34.503 43.5358 35.027 42.8948C35.553 42.2538 36.496 42.1598 37.138 42.6838L41.586 46.3237L44.275 43.0368L39.828 39.3978C39.187 38.8718 39.093 37.9278 39.617 37.2858C40.141 36.6458 41.086 36.5518 41.728 37.0748L46.1759 40.7158L47.3919 39.2288C47.9169 38.5878 48.8609 38.4938 49.5039 39.0178L54.4999 43.1068C57.7569 45.7748 58.5208 50.3657 56.5129 53.9177Z" fill="black"/>
</svg>

<svg xmlns="http://www.w3.org/2000/svg" width="64" height="64" fill="none" viewBox="0 0 64 64"><path fill="currentColor" fill-rule="evenodd" d="M18.651 61h7V49h-7zm37.478 0H28.65V47.5a1.5 1.5 0 0 0-1.5-1.5h-10a1.5 1.5 0 0 0-1.5 1.5V61H8.629V21.593L31.999 3.4l22.63 17.614v17.222a1.5 1.5 0 0 0 3 0V23.35l3.95 3.076a1.5 1.5 0 1 0 1.842-2.368L32.92.317a1.5 1.5 0 0 0-1.842 0l-30.5 23.74a1.5 1.5 0 0 0 1.842 2.368l3.208-2.497V62.5a1.5 1.5 0 0 0 1.5 1.5h49a1.5 1.5 0 0 0 0-3M27.15 38.03h-10a1.5 1.5 0 0 0 0 3h10a1.5 1.5 0 0 0 0-3m-10-7.971h10a1.5 1.5 0 0 1 0 3h-10a1.5 1.5 0 0 1 0-3m10-8h-10a1.5 1.5 0 0 0 0 3h10a1.5 1.5 0 0 0 0-3m8.838 0h10a1.5 1.5 0 0 1 0 3h-10a1.5 1.5 0 0 1 0-3m10 8h-10a1.5 1.5 0 0 0 0 3h10a1.5 1.5 0 0 0 0-3M41.74 50.872l3.835 3.139a5.55 5.55 0 0 0 7.796-.778c1.937-2.368 1.592-5.87-.772-7.805l-3.835-3.14-1.211 1.482-.003.004-.002.004-.006.005-4.582 5.598-.001.002-.001.002-.003.003zm14.773 3.046c1.04.739 2.998 1.719 5.795 1.358a1.5 1.5 0 1 1 .383 2.975q-.816.104-1.566.103a10.9 10.9 0 0 1-6.527-2.125 8.54 8.54 0 0 1-5.522 2.03 8.5 8.5 0 0 1-5.401-1.926l-4.996-4.09a1.5 1.5 0 0 1-.542-1.01 1.5 1.5 0 0 1 .331-1.1l1.217-1.487-4.447-3.64a1.501 1.501 0 0 1 1.9-2.322l4.448 3.64 2.689-3.287-4.447-3.64a1.5 1.5 0 0 1-.211-2.111 1.503 1.503 0 0 1 2.111-.211l4.448 3.64 1.216-1.486a1.5 1.5 0 0 1 2.112-.211l4.996 4.089c3.257 2.668 4.02 7.259 2.013 10.81" clip-rule="evenodd"/></svg>
